packages/ffe-icons/icons/open/400/sm/clear_all.svg

<svg xmlns="http://www.w3.org/2000/svg" height="20" viewBox="0 -960 960 960" width="20"><path d="M180-288q-15.3 0-25.65-10.289-10.35-10.29-10.35-25.5Q144-339 154.35-349.5 164.7-360 180-360h456q15.3 0 25.65 10.289 10.35 10.29 10.35 25.5Q672-309 661.65-298.5 651.3-288 636-288H180Zm72-156q-15.3 0-25.65-10.289-10.35-10.29-10.35-25.5Q216-495 226.35-505.5 236.7-516 252-516h456q15.3 0 25.65 10.289 10.35 10.29 10.35 25.5Q744-465 733.65-454.5 723.3-444 708-444H252Zm72-156q-15.3 0-25.65-10.289-10.35-10.29-10.35-25.5Q288-651 298.35-661.5 308.7-672 324-672h456q15.3 0 25.65 10.289 10.35 10.29 10.35 25.5Q816-621 805.65-610.5 795.3-600 780-600H324Z"/></svg>

<svg xmlns="http://www.w3.org/2000/svg" height="20" viewBox="0 -960 960 960" width="20"><path d="M180-288q-15.3 0-25.65-10.29Q144-308.58 144-323.79t10.35-25.71Q164.7-360 180-360h456q15.3 0 25.65 10.29Q672-339.42 672-324.21t-10.35 25.71Q651.3-288 636-288H180Zm72-156q-15.3 0-25.65-10.29Q216-464.58 216-479.79t10.35-25.71Q236.7-516 252-516h456q15.3 0 25.65 10.29Q744-495.42 744-480.21t-10.35 25.71Q723.3-444 708-444H252Zm72-156q-15.3 0-25.65-10.29Q288-620.58 288-635.79t10.35-25.71Q308.7-672 324-672h456q15.3 0 25.65 10.29Q816-651.42 816-636.21t-10.35 25.71Q795.3-600 780-600H324Z"/></svg>
